X:1
T:Title
%%score { ( 1 3 ) | ( 2 4 ) }
L:1/8
Q:1/4=162
M:6/4
K:A
V:1 treble nm="Grand Piano"
V:3 treble 
V:2 bass 
V:4 bass 
V:1
 [CE]2 [CE]2 [CE]2 [=CF]2 [CF]2 [CF]2 | [CE]2 [EA]2 B2 c6 | c2 B2 E2 F2 F2 F2 | E2 A2 c2 [GB]6 | %4
w: Mrs.~C.~H.~Morris * * * * *||||
 e2 e2 e2 c2 c2 c2 | [GB]2 [Ac]2 [Bd]2 [Ac]6 | [FB]2 [Fc]2 [Fd]2 [Ec]4 [DB]2 | [CA]12 | .E12 | %9
w: |||||
 c12 | .F12 | B12 | [B,EG]6 E2- [EA]2 [DGB]2 | [Ac]2- [EA-c-]2 [EAc]2 e4 c2 | A6 A2 B2 c2 | %15
w: ||||||
 [GB]12 | .[CE]12 | [Ec]12 | .[DF]12 | [Ec]12 | [=Ge]6 [Fd]4 [FB]2 | A6 G6 | A12- | A12 |] %24
w: |||||||||
V:2
 [A,,E,]2 [A,,E,]2 [A,,E,]2 [A,,^D,]2 [A,,D,]2 [A,,D,]2 | [A,,E,]2 [C,A,]2 [E,G,E]2 [A,E]6 | %2
 [E,A,E]2 [E,G,D]2 [E,G,D]2 [D,A,D]2 [D,A,D]2 [F,A,D]2 | [A,C]2 [A,CE]2 [A,EA]2 [E,E]6 | %4
 [A,CA]2 [A,CA]2 [A,CA]2 [A,EA]2 [A,EA]2 [A,EA]2 | [E,E]2 [E,E]2 [E,E]2 [A,E]6 | %6
 [D,D]2 [C,^A,]2 [B,,B,]2 [E,=A,]4 [E,G,]2 | [A,,E,]12 | [A,,A,]2 [A,,A,]2 [A,,A,]2 .[A,,A,]6 | %9
 [A,E]2 A,2 A,2 .A,6 | [D,A,D]2 [D,A,]2 [D,A,]2 .[D,A,]6 | B,,2 B,,2 B,,2 .B,,6 | E,6 z2 C2 E,2 | %13
 A,2 A,2 A,2[K:treble] [A,CA]4 [A,EA]2 | [B,^DF]6 [B,DF]4 [B,DF]2 | [E,E]2 E,2 E,2 E,6 | %16
 A,,2 C,2 E,2 A,2 =C2 ^C2 | [A,,A,]2 C,2 E,2 .A,6 | D,2 D,2 D,2 D,2[K:treble] F2 F2 | %19
 A,2 A,2 A,2[K:bass] .A,6 | [C,A,]6 [D,A,]4 [D,D]2 | [E,CE]2 [E,C]2 [E,C]2 [E,DE]4 [E,D]2 | z6 D6 | %23
 C12 |] %24
V:3
 x12 | x12 | x12 | x12 | x12 | x12 | x12 | x12 | C2 C2 C2 C2 ^D2 E2 | z2 E2 E2 .E6 | %10
 z2 D2 D2 D2 ^E2 F2 | [DF]2 [DF]2 [DF]2 .[DF]6 | z6 .[B,G]6 | .E6 z6 | x12 | z2 E2 E2 E6 | %16
 A,2 A,2 A,2 z2 ^D2 E2 | z2 A,2 A,2 z6 | A,2 A,2 A,2 A,2 A2 d2 | x12 | x12 | z2 E2 E2 z4 E2 | %22
 [CE]6 F6 | E12 |] %24
V:4
 x12 | x12 | x12 | x12 | x12 | x12 | x12 | x12 | x12 | x12 | x12 | x12 | z6 .E,6 | %13
 x6[K:treble] x6 | x12 | x12 | x12 | x12 | x8[K:treble] x4 | x6[K:bass] x6 | x12 | x12 | A,,12- | %23
 A,,12 |] %24

